ufans-frontend-package/public/assets/images/video-call/back-icon.svg

<svg width="319" height="512" viewBox="0 0 319 512" fill="none" xmlns="http://www.w3.org/2000/svg">
<g clip-path="url(#clip0_1412_2)">
<path fill-rule="evenodd" clip-rule="evenodd" d="M270.08 5.89141L313.12 48.9314C320.97 56.7914 320.95 69.6514 313.12 77.4714L134.77 255.821L313.12 434.171C320.97 442.031 320.92 454.901 313.12 462.711L270.08 505.751C262.25 513.571 249.37 513.571 241.54 505.751L49.29 313.491L48.92 313.131L5.88001 270.091C-1.93999 262.261 -1.97999 249.411 5.88001 241.551L48.92 198.511L49.29 198.151L241.54 5.89141C249.39 -1.95859 262.22 -1.95859 270.08 5.89141Z" fill="#6661E7"/>
</g>
<defs>
<clipPath id="clip0_1412_2">
<rect width="319" height="512" fill="white"/>
</clipPath>
</defs>
</svg>

<svg xmlns="http://www.w3.org/2000/svg" xmlns:xlink="http://www.w3.org/1999/xlink" width="319" height="512" viewBox="0 0 319 512">
  <defs>
    <clipPath id="clip-path">
      <rect id="Rectangle_1" data-name="Rectangle 1" width="319" height="512" fill="#e44499"/>
    </clipPath>
  </defs>
  <g id="back-icon" clip-path="url(#clip-path)">
    <path id="Path_1" data-name="Path 1" d="M270.08,5.891l43.04,43.04a20.256,20.256,0,0,1,0,28.54L134.77,255.821l178.35,178.35a20.283,20.283,0,0,1,0,28.54l-43.04,43.04a20.293,20.293,0,0,1-28.54,0L49.29,313.491l-.37-.36L5.88,270.091a20.256,20.256,0,0,1,0-28.54l43.04-43.04.37-.36L241.54,5.891A20.237,20.237,0,0,1,270.08,5.891Z" fill="#e44499" fill-rule="evenodd"/>
  </g>
</svg>
